X:1
T:Title
%%score { ( 1 3 ) | 2 }
L:1/8
M:4/4
K:Bb
V:1 treble nm="Grand Piano"
V:3 treble 
V:2 bass 
V:1
 z4 z[Q:1/4=100] FDF | B6 z2 |[M:5/8] F-F- F3 |[M:3/8] FGF |[M:4/4] C6[K:bass][K:treble] z2 | %5
[M:5/8] D-D- D3 |[M:3/8] FDF |[M:4/4] B6 z2 |[M:3/4] G6 |[M:1/4] [Ge]2 |[M:4/4] d2 z B c c3 | %11
[M:3/4] [DB]6 |[M:1/4] [DB]2 |[M:4/4] [Ge]4 z FGA | [DB]6 [DB]2 | [Fc]4- [Fc][Fc][=Ec][Ed] | %16
 [Fc]6 [EF]2 | [DB]3 [DB] [DB][FB][Fc][Fd] | [EG]6 [Ge]2 | d2 z B c c3 |[M:5/8] [DB]- [DB]3 z |] %21
V:2
 z8 | z [B,,F,][B,,F,][B,,F,] .[B,,F,]2 z2 |[M:5/8] z [B,,B,][B,,B,] [B,,B,][B,,B,] |[M:3/8] z3 | %4
[M:4/4] z F,F,F, .F,2 z2 |[M:5/8] z [B,,F,][B,,F,] [B,,F,][B,,F,] |[M:3/8] z3 | %7
[M:4/4] z [B,,F,][B,,F,][B,,F,] .[B,,F,]2 z2 |[M:3/4] z [E,B,] [E,B,][E,B,] [E,B,]2 | %9
[M:1/4] [E,B,]2 |[M:4/4] [F,B,F]2 z [F,B,D] [F,A,E] [F,A,E]3 |[M:3/4] [B,,B,]6 |[M:1/4] [B,,B,]2 | %13
[M:4/4] [E,B,]4 z [F,A,E][F,B,E][F,CE] | [B,,B,]6 [B,,B,]2 | [F,A,]4- [F,A,][F,A,][C,G,][C,B,] | %16
 [F,A,]6 [F,A,]2 | [B,,B,]3 [B,,B,] [B,,B,][D,B,][C,A,][B,,B,] | [E,B,]6 [E,B,]2 | %19
 [F,B,F]2 z [F,B,D] [F,A,E] [F,A,E]3 |[M:5/8] [B,,B,]- [B,,B,]3 z |] %21
V:3
 x8 | z DDD DDAG |[M:5/8] z DD DD |[M:3/8] x3 |[M:4/4] z[K:bass] A,A,A, A,D[K:treble]EE | %5
[M:5/8] z B,B, B,B, |[M:3/8] x3 |[M:4/4] z DDD DBcd |[M:3/4] z E EE E2 |[M:1/4] x2 |[M:4/4] x8 | %11
[M:3/4] x6 |[M:1/4] x2 |[M:4/4] x8 | x8 | x8 | x8 | x8 | x8 | x8 |[M:5/8] x5 |] %21

